X:7646
T:Traditional Gaelic Melody
O:england
M:4/4
L:1/8
Q:128
K:G
|:d3/2c/B3/2c/ B/G3/2G2|B3/2G/F3/2G/ FDD2|d3/2c/B3/2c/ B/G3/2G2|F3/2C/D/
^F3/2 G4|
W: Gm Dm Gm F D7 Gm
d3/2c/B3/2c/ B/G3/2G2|B3/2G/F3/2G/ FDD2|d3/2c/B3/2c/ B/G3/2G2|F3/2C/D/^F
3/2 G4|
W: Gm Dm Gm Eb F D7 Gm
G2G/F3/2 G2G2|F3/2D/C3/2D/ B,3/2C/DF|G2G3/2F/ G2G2|F3/2C/D/^F3/2 G4|
W: Gm Dm F Bb Dm Gm Dm D7 Gm
G2G3/2F/ G2G2|F3/2D/C3/2D/ B,3/2C/DF|G2G3/2F/ G2G2|F3/2C/D/^F3/2 G4:|G2G
3/2F/ G2G2|^F3/2C/D/^F3/2 G4|
W: Gm Eb Dm F Bb Dm Gm Dm D7 Gm Eb Cm A7 D7 Gm


